Mono Glyph Icons/misc/misc-unfilled/layers.svg

<svg height="48" viewBox="0 -960 960 960" width="48" xmlns="http://www.w3.org/2000/svg"><path d="m126-338q-18-13.94-18-36.97t19.19-36.83q13.19-9.2 28.5-9.7t28.31 9.5l295 230 297-230q13.32-9 28.16-9.5t29.2 8.27q19.01 14.5 18.82 37.86-.18 23.37-18.18 37.37l-297 230q-25.5 20-57.7 20.5-32.19.5-58.3-20.5zm295 34-247-192q-37-28.24-37-74.12 0-45.88 37-73.88l247-193q25.5-20 57.75-20t58.25 20l247 193q37 28 37 73.5t-37 74.5l-247 192q-25.5 21-57.75 21t-58.25-21zm58-74 247-192-247-192-247 192z"/></svg>

<svg xmlns="http://www.w3.org/2000/svg" height="48" viewBox="0 -960 960 960" width="48"><path d="M126-338q-18-13.94-18-36.97t19.19-36.83q13.19-9.2 28.5-9.7T184-412l295 230 297-230q13.32-9 28.16-9.5t29.2 8.27q19.01 14.5 18.82 37.86Q852-352 834-338L537-108q-25.5 20-57.7 20.5-32.19.5-58.3-20.5L126-338Zm295 34L174-496q-37-28.24-37-74.12Q137-616 174-644l247-193q25.5-20 57.75-20T537-837l247 193q37 28 37 73.5T784-496L537-304q-25.5 21-57.75 21T421-304Zm58-74 247-192-247-192-247 192 247 192Zm0-192Z"/></svg>
